X: 1710
T: BONAPARTE'S DEFEAT
M:C|
L:1/8
B:O'NEILL'S 1710
N:"collected by CAREY"
Z:Transcribed by A. LEE WORMAN
K:A
A>G|E>AA>G A>cB>A|G>AB>c d2e>f|{a}g>fg>e d>BB>d|c>AB>G (~GE/)E>D|
E>AA>G A>cB>A|G>AB>c d2e>f|{a}g>fg>e e>dB>G|A2A>AA2:|
|:e>f|{a}g>fg>e a>ga>e|g>fg>e d>BB>d|c2c>B A2G>A|B>cB>F ( ~GE/)E>D|
E>AA>G A>cB>A|G>AB>c d2e>f|{a}g>fg>e e>dB>G|A2A>AA2:|
%  ABC2Win Version 2.1 2/7/98


